X:0512
T:The General Toast.
M:6/8
L:1/8
Q:3/8=120
I: :: ||
Z:Jack Campin * www.campin.me.uk * 2009
K:G
G>AG g>fg|edc  B2A|G>AG g>fg|e3  d3 |
G>AG g>fg|edc  B2A|G>AG edc |B2A G3::
Bcd  d3  |e>dc B2G|B>cd d>gd|cBA G3 |
Bcd  d3  |e>dc B2G|B>cd d>gd|cBA G3:|
<end>
<start>
